bootstrap/bluetooth.svg

<svg viewBox="0 0 16 16" xmlns="http://www.w3.org/2000/svg"><path fill-rule="evenodd" d="M8.543 3.948l1.31 1.31 -1.32 1.31V3.93Zm0 8.104l1.31-1.32 -1.32-1.32v2.63ZM7.13 8l-2.86-2.88L5.1 4.29 7.37 6.56V1.11L11.5 5.25 8.77 7.99l2.74 2.74 -4.136 4.13v-5.48l-2.3 2.27 -.827-.827L7.1 7.96Zm.77 7.991c3.49 0 5.904-1.66 5.904-8.01 0-6.335-2.41-7.99-5.91-7.99C4.4-.01 1.99 1.64 1.99 8c0 6.334 2.407 7.99 5.904 7.99Z"/></svg>

<svg xmlns="http://www.w3.org/2000/svg" width="16" height="16" fill="currentColor" class="bi bi-bluetooth" viewBox="0 0 16 16">
  <path fill-rule="evenodd" d="m8.543 3.948 1.316 1.316L8.543 6.58zm0 8.104 1.316-1.316L8.543 9.42zm-1.41-4.043L4.275 5.133l.827-.827L7.377 6.58V1.128l4.137 4.136L8.787 8.01l2.745 2.745-4.136 4.137V9.42l-2.294 2.274-.827-.827zM7.903 16c3.498 0 5.904-1.655 5.904-8.01 0-6.335-2.406-7.99-5.903-7.99S2 1.655 2 8.01C2 14.344 4.407 16 7.904 16Z"/>
</svg>
